storage/app/icons/phosphoricons/light/trolley-suitcase-light.svg

<svg xmlns="http://www.w3.org/2000/svg" fill="currentColor" viewBox="0 0 256 256"><path d="M88 158h128a14 14 0 0 0 14-14V72a14 14 0 0 0-14-14h-34V40a14 14 0 0 0-14-14h-32a14 14 0 0 0-14 14v18H88a14 14 0 0 0-14 14v72a14 14 0 0 0 14 14m46-118a2 2 0 0 1 2-2h32a2 2 0 0 1 2 2v18h-36ZM86 72a2 2 0 0 1 2-2h128a2 2 0 0 1 2 2v72a2 2 0 0 1-2 2H88a2 2 0 0 1-2-2Zm0 152a14 14 0 1 1-14-14 14 14 0 0 1 14 14m144 0a14 14 0 1 1-14-14 14 14 0 0 1 14 14m16-40a6 6 0 0 1-6 6H32a6 6 0 0 1 0-12h10V75.31a2 2 0 0 0-.59-1.41L19.76 52.24a6 6 0 1 1 8.48-8.48L49.9 65.41a13.94 13.94 0 0 1 4.1 9.9V178h186a6 6 0 0 1 6 6"/></svg>

<svg xmlns="http://www.w3.org/2000/svg" viewBox="0 0 256 256" fill="currentColor"><path d="M88,158H216a14,14,0,0,0,14-14V72a14,14,0,0,0-14-14H182V40a14,14,0,0,0-14-14H136a14,14,0,0,0-14,14V58H88A14,14,0,0,0,74,72v72A14,14,0,0,0,88,158ZM134,40a2,2,0,0,1,2-2h32a2,2,0,0,1,2,2V58H134ZM86,72a2,2,0,0,1,2-2H216a2,2,0,0,1,2,2v72a2,2,0,0,1-2,2H88a2,2,0,0,1-2-2Zm0,152a14,14,0,1,1-14-14A14,14,0,0,1,86,224Zm144,0a14,14,0,1,1-14-14A14,14,0,0,1,230,224Zm16-40a6,6,0,0,1-6,6H32a6,6,0,0,1,0-12H42V75.31a2,2,0,0,0-.59-1.41L19.76,52.24a6,6,0,1,1,8.48-8.48L49.9,65.41a13.94,13.94,0,0,1,4.1,9.9V178H240A6,6,0,0,1,246,184Z"/></svg>
